X: 37
T: Pollonesse #37
M: 3/4
L: 1/16
K: F
Q:120
|F2GA Bcde f2a2| g2gb e2eg f4| d2b2 c2a2 B2g2|Acfa gfed c4|fgAc fefg a2f2|
eg=Bd c2f2 fedc| d^cde fefg a3f| edcB c4C4:|
cBcd c4ABcA|B2e2 gfef g4|BABc B4G2B2|A2c2 fage f4|
FAce f2c2 afef|gfga babg fedc|f2fe d2dc B2BA|GFGA G4F4:|

